symbols/web/nearby_off/materialsymbolssharp/nearby_off_wght600fill1_24px.svg

<svg xmlns="http://www.w3.org/2000/svg" height="24" width="24"><path d="M11.85 23.45.4 12l4.175-4.175-3.425-3.45L2.675 2.8l18.4 18.4-1.575 1.525-3.425-3.425Zm.025-4.5 1.95-1.9-1.325-1.325-.625.675-4.4-4.4.675-.625-1.3-1.325L4.925 12Zm7.3-2.775-2.25-2.25L18.85 12l-6.975-6.95-1.925 1.9L7.7 4.7 11.85.55 23.35 12Zm-3.55-3.525-4.4-4.4.65-.65 4.4 4.4Z"/></svg>

<svg xmlns="http://www.w3.org/2000/svg" height="24" width="24"><path d="M11.85 23.45 0.4 12 4.575 7.825 1.15 4.375 2.675 2.8 21.075 21.2 19.5 22.725 16.075 19.3ZM11.875 18.95 13.825 17.05 12.5 15.725 11.875 16.4 7.475 12 8.15 11.375 6.85 10.05 4.925 12ZM19.175 16.175 16.925 13.925 18.85 12 11.875 5.05 9.95 6.95 7.7 4.7 11.85 0.55 23.35 12ZM15.625 12.65 11.225 8.25 11.875 7.6 16.275 12Z"/></svg>
